images/social/myspace.svg

<svg xmlns="http://www.w3.org/2000/svg" width="300" height="183.75" viewBox="0 0 300 183.75"><defs><style>.a{fill:#333;}</style></defs><title>myspace</title><path class="a" d="M239.52,58.33c4.85-.37,9.74-.12,14.61-.14a51,51,0,0,1,27.25,13.38c7.78,8.27,13.16,19,13.83,30.42,1.31,4-.47,8-.42,12.06-2.18,11.9-8.72,23.15-18.59,30.27a49.53,49.53,0,0,1-52.15,3.59c-11.9-6.79-21.24-18.56-23.83-32.16-3.24-15,1.12-31.58,11.86-42.63C219.14,65.21,229.21,60.36,239.52,58.33Z" transform="translate(0 -58.13)"/><path class="a" d="M134.58,76.43c19.63-2.67,40.16,9.76,46.32,28.67,2.85,8.86,3.36,18.48.26,27.34-5.49,19.64-26.92,32.95-47,29.68-15.58-1.63-29.59-12.88-34.94-27.53-6.07-15.55-2.08-34.66,10.32-46C116.06,81.64,125.31,77.79,134.58,76.43Z" transform="translate(0 -58.13)"/><path class="a" d="M36,93.15a40,40,0,0,1,24.84,4c12.18,6.52,21,19.78,20.46,33.83.6,10.88-4.32,21.7-12.23,29.05-6.43,6.24-15.26,9.65-24.1,10.41-11.46.57-23.43-3.71-31.15-12.38-9.39-9.65-12.58-24.41-9-37.24C8.64,106.61,21.53,95.4,36,93.15Z" transform="translate(0 -58.13)"/><path class="a" d="M197.24,201.37c5.95-19.22,23.35-35,43.6-37.22,6.62-.13,13.38-.59,19.81,1.34,21.09,5.49,36.59,25.12,39.35,46.42V238.1c-.55,1.25-1.11,2.51-1.67,3.76q-50.83,0-101.66,0c-1.12-2.16-2.49-4.37-2.43-6.89C194.28,223.74,193.54,212.19,197.24,201.37Z" transform="translate(0 -58.13)"/><path class="a" d="M114.82,178.84c7.15-4.78,15.66-7,24.16-7.6,11.73.2,23.77,4.17,32.23,12.56a48,48,0,0,1,14.56,24.27c2.46,8.75,1.94,17.95,2,27,.21,2.54-1.47,4.59-2.42,6.81q-45.74,0-91.48,0a17.61,17.61,0,0,0-1.74-4.32c.21-7.5-.64-15.08.63-22.52C94,200.37,102.78,187,114.82,178.84Z" transform="translate(0 -58.13)"/><path class="a" d="M31.81,179.81c11.6-3.41,24.56-.78,34.43,6,8.29,6.28,14.85,15,17.6,25.13,1.88,8.47,2,17.18,1.71,25.81a30.51,30.51,0,0,1-1.45,5.1q-41.68-.07-83.35,0L0,239.08V215.43C3.09,199.05,15.3,183.9,31.81,179.81Z" transform="translate(0 -58.13)"/></svg>

<?xml version="1.0" encoding="UTF-8" ?>
<!DOCTYPE svg PUBLIC "-//W3C//DTD SVG 1.1//EN" "http://www.w3.org/Graphics/SVG/1.1/DTD/svg11.dtd">
<svg width="300pt" height="300pt" viewBox="0 0 300 300" version="1.1" xmlns="http://www.w3.org/2000/svg">
<g>
<path fill="#fff" opacity="1.00" d=" M 239.52 58.33 C 244.37 57.96 249.26 58.21 254.13 58.19 C 264.35 59.60 273.84 64.61 281.38 71.57 C 289.16 79.84 294.54 90.55 295.21 101.99 C 296.52 106.00 294.74 110.00 294.79 114.05 C 292.61 125.95 286.07 137.20 276.20 144.32 C 261.33 155.31 240.28 156.76 224.05 147.91 C 212.15 141.12 202.81 129.35 200.22 115.75 C 196.98 100.77 201.34 84.17 212.08 73.12 C 219.14 65.21 229.21 60.36 239.52 58.33 Z" />
<path fill="#fff" opacity="1.00" d=" M 134.58 76.43 C 154.21 73.76 174.74 86.19 180.90 105.10 C 183.75 113.96 184.26 123.58 181.16 132.44 C 175.67 152.08 154.24 165.39 134.20 162.12 C 118.62 160.49 104.61 149.24 99.26 134.59 C 93.19 119.04 97.18 99.93 109.58 88.57 C 116.06 81.64 125.31 77.79 134.58 76.43 Z" />
<path fill="#fff" opacity="1.00" d=" M 36.03 93.15 C 44.47 91.93 53.33 93.07 60.87 97.19 C 73.05 103.71 81.86 116.97 81.33 131.02 C 81.93 141.90 77.01 152.72 69.10 160.07 C 62.67 166.31 53.84 169.72 45.00 170.48 C 33.54 171.05 21.57 166.77 13.85 158.10 C 4.46 148.45 1.27 133.69 4.89 120.86 C 8.64 106.61 21.53 95.40 36.03 93.15 Z" />
<path fill="#fff" opacity="1.00" d=" M 197.24 201.37 C 203.19 182.15 220.59 166.40 240.84 164.15 C 247.46 164.02 254.22 163.56 260.65 165.49 C 281.74 170.98 297.24 190.61 300.00 211.91 L 300.00 238.10 C 299.45 239.35 298.89 240.61 298.33 241.86 C 264.44 241.83 230.55 241.80 196.67 241.88 C 195.55 239.72 194.18 237.51 194.24 234.99 C 194.28 223.74 193.54 212.19 197.24 201.37 Z" />
<path fill="#fff" opacity="1.00" d=" M 114.82 178.84 C 121.97 174.06 130.48 171.88 138.98 171.24 C 150.71 171.44 162.75 175.41 171.21 183.80 C 178.25 190.24 183.63 198.75 185.77 208.07 C 188.23 216.82 187.71 226.02 187.78 235.04 C 187.99 237.58 186.31 239.63 185.36 241.85 C 154.87 241.82 124.37 241.85 93.88 241.83 C 93.51 240.31 92.89 238.87 92.14 237.51 C 92.35 230.01 91.50 222.43 92.77 214.99 C 93.99 200.37 102.78 186.98 114.82 178.84 Z" />
<path fill="#fff" opacity="1.00" d=" M 31.81 179.81 C 43.41 176.40 56.37 179.03 66.24 185.83 C 74.53 192.11 81.09 200.85 83.84 210.96 C 85.72 219.43 85.88 228.14 85.55 236.77 C 85.31 238.53 84.64 240.18 84.10 241.87 C 56.31 241.82 28.53 241.81 0.75 241.87 C 0.56 241.17 0.19 239.78 0.00 239.08 L 0.00 215.43 C 3.09 199.05 15.30 183.90 31.81 179.81 Z" />
</g>
</svg>
